src/assets/svg/search.svg

<svg width="34" height="34" viewBox="0 0 34 34" fill="none" xmlns="http://www.w3.org/2000/svg">
<path fill-rule="evenodd" clip-rule="evenodd" d="M21.9603 13.875C21.9603 18.1782 18.4718 21.6666 14.1686 21.6666C9.8654 21.6666 6.37695 18.1782 6.37695 13.875C6.37695 9.57176 9.8654 6.08331 14.1686 6.08331C18.4718 6.08331 21.9603 9.57176 21.9603 13.875ZM21.0481 23.7593C19.0979 25.1192 16.7264 25.9166 14.1686 25.9166C7.51819 25.9166 2.12695 20.5254 2.12695 13.875C2.12695 7.22455 7.51819 1.83331 14.1686 1.83331C20.819 1.83331 26.2103 7.22455 26.2103 13.875C26.2103 16.4326 25.4129 18.8039 24.0533 20.754L30.5466 27.2474C31.3765 28.0773 31.3765 29.4227 30.5466 30.2526C29.7168 31.0825 28.3713 31.0825 27.5414 30.2526L21.0481 23.7593Z" fill="white"/>
<path d="M21.0481 23.7593L21.7081 23.0993L21.1554 22.5466L20.5143 22.9937L21.0481 23.7593ZM24.0533 20.754L23.2876 20.2202L22.8406 20.8613L23.3933 21.414L24.0533 20.754ZM30.5466 27.2474L29.8867 27.9074L30.5466 27.2474ZM27.5414 30.2526L28.2014 29.5926V29.5926L27.5414 30.2526ZM14.1686 22.6C18.9873 22.6 22.8936 18.6937 22.8936 13.875H21.027C21.027 17.6627 17.9564 20.7333 14.1686 20.7333V22.6ZM5.44362 13.875C5.44362 18.6937 9.34994 22.6 14.1686 22.6V20.7333C10.3809 20.7333 7.31029 17.6627 7.31029 13.875H5.44362ZM14.1686 5.14998C9.34994 5.14998 5.44362 9.05629 5.44362 13.875H7.31029C7.31029 10.0872 10.3809 7.01665 14.1686 7.01665V5.14998ZM22.8936 13.875C22.8936 9.05629 18.9873 5.14998 14.1686 5.14998V7.01665C17.9564 7.01665 21.027 10.0872 21.027 13.875H22.8936ZM14.1686 26.85C16.9234 26.85 19.4803 25.9904 21.582 24.5249L20.5143 22.9937C18.7156 24.2479 16.5294 24.9833 14.1686 24.9833V26.85ZM1.19362 13.875C1.19362 21.0409 7.00273 26.85 14.1686 26.85V24.9833C8.03366 24.9833 3.06029 20.0099 3.06029 13.875H1.19362ZM14.1686 0.89998C7.00273 0.89998 1.19362 6.70908 1.19362 13.875H3.06029C3.06029 7.74002 8.03366 2.76665 14.1686 2.76665V0.89998ZM27.1436 13.875C27.1436 6.70908 21.3345 0.89998 14.1686 0.89998V2.76665C20.3036 2.76665 25.277 7.74002 25.277 13.875H27.1436ZM24.8189 21.2878C26.2842 19.1862 27.1436 16.6296 27.1436 13.875H25.277C25.277 16.2356 24.5417 18.4216 23.2876 20.2202L24.8189 21.2878ZM23.3933 21.414L29.8867 27.9074L31.2066 26.5874L24.7132 20.094L23.3933 21.414ZM29.8867 27.9074C30.3521 28.3727 30.3521 29.1273 29.8867 29.5926L31.2066 30.9126C32.401 29.7182 32.401 27.7818 31.2066 26.5874L29.8867 27.9074ZM29.8867 29.5926C29.4213 30.058 28.6668 30.058 28.2014 29.5926L26.8815 30.9126C28.0758 32.1069 30.0123 32.1069 31.2066 30.9126L29.8867 29.5926ZM28.2014 29.5926L21.7081 23.0993L20.3882 24.4193L26.8815 30.9126L28.2014 29.5926Z" fill="white"/>
</svg>

<svg width="34" height="34" fill="none" xmlns="http://www.w3.org/2000/svg"><path fill-rule="evenodd" clip-rule="evenodd" d="M21.96 13.875a7.792 7.792 0 1 1-15.583 0 7.792 7.792 0 0 1 15.583 0zm-.912 9.884a11.986 11.986 0 0 1-6.88 2.158c-6.65 0-12.041-5.392-12.041-12.042 0-6.65 5.391-12.042 12.042-12.042 6.65 0 12.041 5.392 12.041 12.042 0 2.558-.797 4.929-2.157 6.879l6.494 6.493a2.125 2.125 0 1 1-3.006 3.006l-6.493-6.494z" fill="#fff"/><path d="m21.048 23.76.66-.66-.553-.553-.64.447.533.765zm3.005-3.006-.765-.534-.447.641.552.553.66-.66zm6.494 6.493-.66.66.66-.66zm-3.006 3.006.66-.66-.66.66zM14.17 22.6a8.725 8.725 0 0 0 8.725-8.725h-1.867a6.858 6.858 0 0 1-6.858 6.858V22.6zm-8.725-8.725a8.725 8.725 0 0 0 8.725 8.725v-1.867a6.858 6.858 0 0 1-6.859-6.858H5.444zm8.725-8.725a8.725 8.725 0 0 0-8.725 8.725H7.31a6.858 6.858 0 0 1 6.859-6.858V5.15zm8.725 8.725a8.725 8.725 0 0 0-8.725-8.725v1.867a6.858 6.858 0 0 1 6.858 6.858h1.867zM14.169 26.85c2.754 0 5.311-.86 7.413-2.325l-1.068-1.531a11.053 11.053 0 0 1-6.345 1.99v1.866zM1.194 13.875c0 7.166 5.809 12.975 12.975 12.975v-1.867c-6.135 0-11.109-4.973-11.109-11.108H1.194zM14.169.9C7.003.9 1.194 6.71 1.194 13.875H3.06C3.06 7.74 8.034 2.767 14.17 2.767V.9zm12.975 12.975C27.144 6.709 21.334.9 14.169.9v1.867c6.135 0 11.108 4.973 11.108 11.108h1.867zm-2.325 7.413a12.92 12.92 0 0 0 2.325-7.413h-1.867c0 2.36-.735 4.547-1.99 6.345l1.532 1.068zm-1.426.126 6.494 6.493 1.32-1.32-6.494-6.493-1.32 1.32zm6.494 6.493c.465.466.465 1.22 0 1.686l1.32 1.32a3.058 3.058 0 0 0 0-4.326l-1.32 1.32zm0 1.686a1.192 1.192 0 0 1-1.686 0l-1.32 1.32a3.058 3.058 0 0 0 4.326 0l-1.32-1.32zm-1.686 0-6.493-6.494-1.32 1.32 6.493 6.494 1.32-1.32z" fill="#fff"/></svg>
